app/img/arrow-left.svg

<svg enable-background="new 0 0 5 10" viewBox="0 0 5 10" xmlns="http://www.w3.org/2000/svg"><path d="m.1 5.3 4.2 4.5c.2.2.4.2.6 0 .1-.1.1-.4 0-.6l-3.9-4.2 3.9-4.2c.1-.2.1-.5 0-.7-.1-.1-.2-.1-.3-.1s-.2 0-.3.1l-4.2 4.6c-.1.1-.1.2-.1.3s0 .2.1.3z"/></svg>

<?xml version="1.0" encoding="utf-8"?>
<!-- Generator: Adobe Illustrator 26.0.3, SVG Export Plug-In . SVG Version: 6.00 Build 0)  -->
<svg version="1.1" id="Layer_1" xmlns="http://www.w3.org/2000/svg" xmlns:xlink="http://www.w3.org/1999/xlink" x="0px" y="0px"
	 viewBox="0 0 5 10" style="enable-background:new 0 0 5 10;" xml:space="preserve">
<path id="XMLID_222_" d="M0.1,5.3l4.2,4.5c0.2,0.2,0.4,0.2,0.6,0C5,9.7,5,9.4,4.9,9.2L1,5l3.9-4.2C5,0.6,5,0.3,4.9,0.1
	C4.8,0,4.7,0,4.6,0C4.5,0,4.4,0,4.3,0.1L0.1,4.7C0,4.8,0,4.9,0,5C0,5.1,0,5.2,0.1,5.3z"/>
</svg>
